!!!!SEGMENT: pl-sa--l-1643--007_anonim--egredere-si-praevales-benedicte-sanctissime.krn
!!!cenid: 16xx:1362
!!!COM: Anonim
!!!COM-rismID: pe30004985
!!!CDT:
!!!CNT:
!!!OTL: Egredere si praevales, Benedicte sanctissime
!!!PDT:
!!!AGN: Sacred
!!!SMS-siglum: PL-SA
!!!SMS-shelfmark: L 1643
!!!SMS-shelfwork: 007 W
!!!SMS-variant:
!!!SMS-altvar:
!!!NIFC-rismSourceID: 1001064083
!!!NIFC-islandoraID:
!!!URL-pdf-islandora:
!!!URL-scan:
!!!ONB-nifc: UWAGA: 8 ksiąg. Primi chori: 1mus Cantus (s. 28-29), C 2dus (s. 26-27), C 3tius (brak), Bassus (s. 24-25); Secondi chori: Primus Cantus (s. 26-27), C 2dus (s. 26-27), Altus (s. 26-27), Bassus (s. 26-27). UWAGA: metrum 2/2 i 3/2
!!!AIN: 8 empty
!!!key:
**kern	**text	**kern	**text	**kern	**text	**kern	**text	**kern	**text	**kern	**kern	**text	**kern	**text
*part8	*part8	*part7	*part7	*part6	*part6	*part5	*part5	*part4	*part4	*part3	*part2	*part2	*part1	*part1
*staff8	*staff8	*staff7	*staff7	*staff6	*staff6	*staff5	*staff5	*staff4	*staff4	*staff3	*staff2	*staff2	*staff1	*staff1
*Iempty	*	*Iempty	*	*Iempty	*	*Iempty	*	*Iempty	*	*Iempty	*Iempty	*	*Iempty	*
*I"Baſsus 2di Chori	*	*I"Altus secundi Chori.	*	*I"Cantus 2dus Secundi Chori.	*	*I"Primus Cantus 2di Chori	*	*I"Bassus Primi Chori.	*	*I"Cantus 3tius Primi Chori	*I"Cantus 2dus Primi Chori.	*	*I"Im(us) Cantus Primi Chori	*
*I'B	*	*I'A	*	*I'S 2	*	*I'S 1	*	*I'B	*	*I'S 3	*I'S 2	*	*I'S 1	*
*clefC3	*	*clefC2	*	*clefC1	*	*clefG2	*	*clefC3	*	*clefG2	*clefC1	*	*clefG2	*
*k[b-]	*	*k[b-]	*	*k[b-]	*	*k[b-]	*	*k[b-]	*	*k[b-]	*k[b-]	*	*k[b-]	*
*g:	*	*g:	*	*g:	*	*g:	*	*g:	*	*g:	*g:	*	*g:	*
*M2/2	*	*M2/2	*	*M2/2	*	*M2/2	*	*M2/2	*	*M2/2	*M2/2	*	*M2/2	*
*met(c|)	*	*met(c|)	*	*met(c|)	*	*met(c|)	*	*met(c|)	*	*met(c|)	*met(c|)	*	*met(c|)	*
=1-	=1-	=1-	=1-	=1-	=1-	=1-	=1-	=1-	=1-	=1-	=1-	=1-	=1-	=1-
!	!	!LO:TX:t=P:B-b-:problem=znaki przykluczowe	!	!	!	!	!	!	!	!LO:TX:t=P:problem=defekt źródła	!	!	!	!
2g\	E-	2g\	E-	2b-\	E-	2dd\	E-	2G/	E-	1ryy	2b-\	E-	2dd\	E-
4.g\	-gre-	4.g\	-gre-	4.b-\	-gre-	4.dd\	-gre-	4.G/	-gre-	.	4.b-\	-gre-	4.dd\	-gre-
8g\	-de-	8g\	-de-	8b-\	-de-	8dd\	-de-	8G/	-de-	.	8b-\	-de-	8dd\	-de-
=2-	=2-	=2-	=2-	=2-	=2-	=2-	=2-	=2-	=2-	=2-	=2-	=2-	=2-	=2-
4d\	-re	4a\	-re	4dd\	-re	4dd\	-re	4d\	-re	1ryy	4a\	-re	4dd\	-re
*	*ij	*	*ij	*	*	*	*	*	*	*	*	*ij	*	*ij
4G/	E-	4g\	E-	4dd\	e-	4b-/	e-	4g\	e-	.	4b-\	E-	4dd\	E-
4.G/	-gre-	4.g\	-gre-	4.b-\	-gre-	4.dd\	-gre-	4.g\	-gre-	.	4.b-\	-gre-	4.dd\	-gre-
8G/	-de-	8g\	-de-	8b-\	-de-	8dd\	-de-	8g\	-de-	.	8b-\	-de-	8dd\	-de-
=3-	=3-	=3-	=3-	=3-	=3-	=3-	=3-	=3-	=3-	=3-	=3-	=3-	=3-	=3-
4d\	-re	4a\	-re	4dd\,	-re	4dd\	-re	4d\	-re	1ryy	4a\	-re	4dd\	-re
*	*Xij	*	*Xij	*	*	*	*	*	*	*	*	*Xij	*	*Xij
4g\	e-	4g\	e-	4dd\	e-	4b-/	e-	4G/	e-	.	4b-\	e-	4b-/	e-
4.g\	-gre-	4.g\	-gre-	4.b-\	-gre-	4.dd\	-gre-	4.G/	-gre-	.	4.b-\	-gre-	4.dd\	-gre-
8g\	-de-	8g\	-de-	8b-\	-de-	8dd\	-de-	8G/	-de-	.	8b-\	-de-	8dd\	-de-
=4-	=4-	=4-	=4-	=4-	=4-	=4-	=4-	=4-	=4-	=4-	=4-	=4-	=4-	=4-
2d\	-re	2f#X\	-re	2dd\	-re	2dd\	-re	2d\	-re	1ryy	2a\	-re	2dd\	-re
2r	.	2r	.	2r	.	2r	.	4d\	si-	.	4a\	si-	4dd\	si-
.	.	.	.	.	.	.	.	4d\	-prae-	.	4a\	-prae-	4dd\	-prae-
=5-	=5-	=5-	=5-	=5-	=5-	=5-	=5-	=5-	=5-	=5-	=5-	=5-	=5-	=5-
00r	.	00r	.	00r	.	00r	.	2g\	-ua-	1ryy	2b-\	-ua-	2dd\	-ua-
*	*	*	*	*	*	*	*	*custos:c	*	*	*	*	*	*
.	.	.	.	.	.	.	.	2c/	-les	.	2cc\	-les	2ee\	-les
!	!	!	!	!	!	!	!	!LO:LB:g=original	!	!	!	!	!	!
=6-	=6-	=6-	=6-	=6-	=6-	=6-	=6-	=6-	=6-	=6-	=6-	=6-	=6-	=6-
*	*	*	*	*	*	*	*	*	*	*	*	*ij	*	*ij
.	.	.	.	.	.	.	.	4c/	si-	1ryy	4cc\	si-	4ee\	si-
.	.	.	.	.	.	.	.	4c/	-prae-	.	4cc\	-prae-	4ee\	-prae-
.	.	.	.	.	.	.	.	2f\	-ua-	.	2cc\	-ua-	2ff\	-ua-
=7-	=7-	=7-	=7-	=7-	=7-	=7-	=7-	=7-	=7-	=7-	=7-	=7-	=7-	=7-
.	.	.	.	.	.	.	.	2B-/	-les	1ryy	2dd\	-les	2dd\	-les
*	*	*	*	*	*	*	*	*	*	*	*	*Xij	*	*Xij
.	.	.	.	.	.	.	.	4.B-/	Be-	.	4.dd\	Be-	4.dd\	Be-
*	*	*	*	*	*	*	*	*	*	*	*custos:cc	*	*	*
.	.	.	.	.	.	.	.	8B-/	-ne-	.	8dd\	-ne-	8dd\	-ne-
!	!	!	!	!	!	!	!	!	!	!	!LO:LB:g=original	!	!	!
=8-	=8-	=8-	=8-	=8-	=8-	=8-	=8-	=8-	=8-	=8-	=8-	=8-	=8-	=8-
*	*	*	*	*	*	*	*	*	*	*	*	*	*custos:een	*
.	.	.	.	.	.	.	.	1c	-di-	1ryy	1cc	-di-	1ee-X	-di-
!	!	!	!	!	!	!	!	!	!	!	!	!	!LO:LB:g=original	!
=9-	=9-	=9-	=9-	=9-	=9-	=9-	=9-	=9-	=9-	=9-	=9-	=9-	=9-	=9-
0r	.	0r	.	0r	.	0r	.	2c/	-cte	1ryy	2cc\	-cte	2ee-X\	-cte
.	.	.	.	.	.	.	.	2e-X\	San-	.	1cc\	San-	2cc\	San-
=10-	=10-	=10-	=10-	=10-	=10-	=10-	=10-	=10-	=10-	=10-	=10-	=10-	=10-	=10-
.	.	.	.	.	.	.	.	1.d	-ctiſ-	1ryy	.	.	1.dd	-ctiſ-
.	.	.	.	.	.	.	.	.	.	.	2b-\	-ctiſ-	.	.
=11-	=11-	=11-	=11-	=11-	=11-	=11-	=11-	=11-	=11-	=11-	=11-	=11-	=11-	=11-
1r	.	1r	.	1r	.	1r	.	.	.	1ryy	1a	-si-	.	.
.	.	.	.	.	.	.	.	2d\	-si-	.	.	.	2dd\	-si-
=12-	=12-	=12-	=12-	=12-	=12-	=12-	=12-	=12-	=12-	=12-	=12-	=12-	=12-	=12-
2g\	e-	2g\	e-	2b-\	e-	2dd\	e-	1G	-me	1ryy	1b-	-me	1dd	-me
4.g\	-gre-	4.g\	-gre-	4.b-\	-gre-	4.dd\	-gre-	.	.	.	.	.	.	.
8g\	-de-	8g\	-de-	8b-\	-de-	8dd\	-de-	.	.	.	.	.	.	.
=13-	=13-	=13-	=13-	=13-	=13-	=13-	=13-	=13-	=13-	=13-	=13-	=13-	=13-	=13-
4d\	-re	4f#X\	-re	4dd\,	-re	4dd\	-re	4r	.	1ryy	4r	.	4r	.
*	*ij	*	*	*	*ij	*	*	*	*	*	*	*	*	*
4G/	e-	4g\	e-	4dd\	e-	4b-/	e-	4g\	e-	.	4b-\	e-	4dd\	e-
4.G/	-gre-	4.g\	-gre-	4.b-\	-gre-	4.dd\	-gre-	4.g\	-gre-	.	4.b-\	-gre-	4.dd\	-gre-
8G/	-de-	8g\	-de-	8b-\	-de-	8dd\	-de-	8g\	-de-	.	8b-\	-de-	8dd\	-de-
=14-	=14-	=14-	=14-	=14-	=14-	=14-	=14-	=14-	=14-	=14-	=14-	=14-	=14-	=14-
*custos:g	*	*custos:g	*	*	*	*custos:dd	*	*	*	*	*	*	*	*
4d\	-re	4a\	-re	4dd\,	-re	4dd\	-re	4d\	-re	1ryy	4a\	-re	4dd\	-re
!LO:LB:g=original	!	!LO:LB:g=original	!	!	!	!LO:LB:g=original	!	!	!	!	!	!	!	!
*	*Xij	*	*	*	*Xij	*	*	*	*	*	*	*	*	*
4g\	e-	4g\	e-	4dd\	e-	4b-/	e-	4G/	e-	.	4b-\	e-	4dd\	e-
4.g\	-gre-	4.g\	-gre-	4.b-\	-gre-	4.dd\	-gre-	4.G/	-gre-	.	4.b-\	-gre-	4.dd\	-gre-
*	*	*	*	*custos:dd	*	*	*	*	*	*	*	*	*	*
8g\	-de-	8g\	-de-	8b-\	-de-	8dd\	-de-	8G/	-de-	.	8b-\	-de-	8dd\	-de-
!	!	!	!	!LO:LB:g=original	!	!	!	!	!	!	!	!	!	!
=15-	=15-	=15-	=15-	=15-	=15-	=15-	=15-	=15-	=15-	=15-	=15-	=15-	=15-	=15-
2d\	-re	2f#X\	-re	2dd\	-re	2dd\	-re	2d\	-re	1ryy	2a\	-re	2dd\	-re
1g\	si	1g\	si	1b-\	si	1dd\	si	2r	.	.	2r	.	2r	.
=16-	=16-	=16-	=16-	=16-	=16-	=16-	=16-	=16-	=16-	=16-	=16-	=16-	=16-	=16-
*	*	*	*	*	*	*	*	*custos:B-	*	*	*	*	*	*
.	.	.	.	.	.	.	.	0r	.	1ryy	0r	.	0r	.
2e-X\	prae-	2g\	prae-	2b-\	prae-	2ee-X\	prae-	.	.	.	.	.	.	.
=17-	=17-	=17-	=17-	=17-	=17-	=17-	=17-	=17-	=17-	=17-	=17-	=17-	=17-	=17-
1f	-ua-	1f	-ua-	(2b-\	-ua-	1cc	-ua-	.	.	1ryy	.	.	.	.
.	.	.	.	2a\)	.	.	.	.	.	.	.	.	.	.
!	!	!	!	!	!	!	!	!LO:LB:g=original	!	!	!	!	!	!
=18-	=18-	=18-	=18-	=18-	=18-	=18-	=18-	=18-	=18-	=18-	=18-	=18-	=18-	=18-
1B-	-les	1f	-les	1b-	-les	1dd	-les	2r	.	1ryy	2r	.	2r	.
.	.	.	.	.	.	.	.	1B-/	si	.	1b-\	si	1ff\	si
=19-	=19-	=19-	=19-	=19-	=19-	=19-	=19-	=19-	=19-	=19-	=19-	=19-	=19-	=19-
00r	.	00r	.	00r	.	00r	.	.	.	1ryy	.	.	.	.
.	.	.	.	.	.	.	.	2G/	prae-	.	2dd\	prae-	2gg\	prae-
=20-	=20-	=20-	=20-	=20-	=20-	=20-	=20-	=20-	=20-	=20-	=20-	=20-	=20-	=20-
.	.	.	.	.	.	.	.	1A	-ua-	1ryy	(2dd\	-u[a]-	1ee	-ua-
.	.	.	.	.	.	.	.	.	.	.	2cc#X\)	.	.	.
=21-	=21-	=21-	=21-	=21-	=21-	=21-	=21-	=21-	=21-	=21-	=21-	=21-	=21-	=21-
.	.	.	.	.	.	.	.	2d\	-les	1ryy	2dd\	-les	1dd	-les
!	!	!	!	!	!	!	!	!	!	!	!LO:N:acc=#	!	!	!
.	.	.	.	.	.	.	.	1g\	Be-	.	2bn\	Be-	.	.
=22-	=22-	=22-	=22-	=22-	=22-	=22-	=22-	=22-	=22-	=22-	=22-	=22-	=22-	=22-
.	.	.	.	.	.	.	.	.	.	1ryy	1cc	-ne-	1ee-X	Be-
.	.	.	.	.	.	.	.	2c/	-ne-	.	.	.	.	.
=23-	=23-	=23-	=23-	=23-	=23-	=23-	=23-	=23-	=23-	=23-	=23-	=23-	=23-	=23-
00r	.	00r	.	00r	.	00r	.	1f	-di-	1ryy	2a\	-di-	2cc\	-ne-
.	.	.	.	.	.	.	.	.	.	.	2b-\	-cte	1dd\	-di-
=24-	=24-	=24-	=24-	=24-	=24-	=24-	=24-	=24-	=24-	=24-	=24-	=24-	=24-	=24-
.	.	.	.	.	.	.	.	1B-	-cte	1ryy	4b-\	be-	.	.
*	*	*	*	*	*	*	*	*	*	*	*custos:g	*	*	*
.	.	.	.	.	.	.	.	.	.	.	4a\	.	.	.
!	!	!	!	!	!	!	!	!	!	!	!LO:LB:g=original	!	!	!
.	.	.	.	.	.	.	.	.	.	.	1g\	-ne-	2dd\	-cte
=25-	=25-	=25-	=25-	=25-	=25-	=25-	=25-	=25-	=25-	=25-	=25-	=25-	=25-	=25-
.	.	.	.	.	.	.	.	1c	San-	1ryy	.	.	1ee-X	San-
.	.	.	.	.	.	.	.	.	.	.	1cc\	-di-	.	.
=26-	=26-	=26-	=26-	=26-	=26-	=26-	=26-	=26-	=26-	=26-	=26-	=26-	=26-	=26-
.	.	.	.	.	.	.	.	1.d	-ctiſ-	1ryy	.	.	1.dd	-ctiſ-
.	.	.	.	.	.	.	.	.	.	.	4b-\	-cte	.	.
.	.	.	.	.	.	.	.	.	.	.	4b-\	san-	.	.
=27-	=27-	=27-	=27-	=27-	=27-	=27-	=27-	=27-	=27-	=27-	=27-	=27-	=27-	=27-
1r	.	1r	.	1r	.	1r	.	.	.	1ryy	2.a\	-ctiſ-	.	.
*	*	*	*	*	*	*	*	*	*	*	*	*	*custos:dd	*
.	.	.	.	.	.	.	.	2d\	-si-	.	.	.	2dd\	-si-
.	.	.	.	.	.	.	.	.	.	.	4a\	-si-	.	.
!	!	!	!	!	!	!	!	!	!	!	!	!	!LO:LB:g=original	!
=28-	=28-	=28-	=28-	=28-	=28-	=28-	=28-	=28-	=28-	=28-	=28-	=28-	=28-	=28-
2g\	e-	2g\	e-	2b-\	e-	2dd\	e-	1G	-me	1ryy	1b-	-me	1dd	-me
4.g\	-gre-	4.g\	-gre-	4.b-\	-gre-	4.dd\	-gre-	.	.	.	.	.	.	.
8g\	-de-	8g\	-de-	8b-\	-de-	8dd\	-de-	.	.	.	.	.	.	.
=29-	=29-	=29-	=29-	=29-	=29-	=29-	=29-	=29-	=29-	=29-	=29-	=29-	=29-	=29-
4g\	-re	4g\	-re	4b-\	-re	4dd\	-re	1r	.	1ryy	1r	.	1r	.
2g\	si	2g\	si	2b-\	si	2dd\	si	.	.	.	.	.	.	.
4e-X\	prae-	4a\	prae-	4b-\	prae-	4ee-X\	prae-	.	.	.	.	.	.	.
=30-	=30-	=30-	=30-	=30-	=30-	=30-	=30-	=30-	=30-	=30-	=30-	=30-	=30-	=30-
2f\	-ua-	2f\	-ua-	(4b-\	-ua-	2cc\	-ua-	2r	.	1ryy	2r	.	2r	.
.	.	.	.	4a\)	.	.	.	.	.	.	.	.	.	.
2B-/	-les	2f\	-les	2b-\	-les	2dd\	-les	2B-/	e-	.	2b-\	e	2dd\	e-
=31-	=31-	=31-	=31-	=31-	=31-	=31-	=31-	=31-	=31-	=31-	=31-	=31-	=31-	=31-
!	!	!	!	!	!	!LO:TX:t=P:problem=miejsce nieczytelne	!	!	!	!	!	!	!	!
0r	.	0r	.	0r	.	1ryy	.	4.B-/	-gre-	1ryy	4.dd\	gre-	4.ff\	-gre-
.	.	.	.	.	.	.	.	8B-/	-de-	.	8dd\	-de-	8ff\	-de-
.	.	.	.	.	.	.	.	2B-/	-re	.	2dd\	-re	2ff\	-re
=32-	=32-	=32-	=32-	=32-	=32-	=32-	=32-	=32-	=32-	=32-	=32-	=32-	=32-	=32-
.	.	.	.	.	.	1ryy	.	2.G/	si	1ryy	2.dd\	si	2.gg\	si
.	.	.	.	.	.	.	.	4B-/	prae-	.	4dd\	prae-	4dd\	prae-
=33-	=33-	=33-	=33-	=33-	=33-	=33-	=33-	=33-	=33-	=33-	=33-	=33-	=33-	=33-
*	*	*	*	*	*	*	*	*custos:d	*	*	*	*	*	*
1r	.	1r	.	1r	.	1ryy	.	2A/	-ua-	1ryy	(4dd\	-ua-	2ee\	-ua-
.	.	.	.	.	.	.	.	.	.	.	4cc#X\)	.	.	.
!	!	!	!	!	!	!	!	!LO:LB:g=original	!	!	!	!	!	!
.	.	.	.	.	.	.	.	2d\	-les	.	2dd\	-les	2dd\	-les
=34-	=34-	=34-	=34-	=34-	=34-	=34-	=34-	=34-	=34-	=34-	=34-	=34-	=34-	=34-
1.B-	Be-	1.f	Be-	1.b-	Be-	1.b-	Be-	1.B-	Be-	1ryy	1.dd	Be-	2.dd\	Be-
.	.	.	.	.	.	.	.	.	.	.	.	.	4ee\	.
=35-	=35-	=35-	=35-	=35-	=35-	=35-	=35-	=35-	=35-	=35-	=35-	=35-	=35-	=35-
.	.	.	.	.	.	.	.	.	.	1ryy	.	.	2ff\	.
2f\	-ne-	2a\	-ne-	2a\	-nedi-	2cc\	-ne-	2F/	-ne-	.	2cc\	-ne-	2ff\	-ne-
=36-	=36-	=36-	=36-	=36-	=36-	=36-	=36-	=36-	=36-	=36-	=36-	=36-	=36-	=36-
!	!	!	!	!LO:TX:t=P:problem=defekt źródła	!	!	!	!	!	!	!	!	!	!
1c	-di-	1e	-di-	1ryy	.	1cc	-di-	1c	-di-	1ryy	1cc	-di-	4ee\	-di-
.	.	.	.	.	.	.	.	.	.	.	.	.	4dd\	.
.	.	.	.	.	.	.	.	.	.	.	.	.	4ee\	.
.	.	.	.	.	.	.	.	.	.	.	.	.	4ff\	.
=37-	=37-	=37-	=37-	=37-	=37-	=37-	=37-	=37-	=37-	=37-	=37-	=37-	=37-	=37-
2g\	-cte	2d/	-cte	2b-\	-cte	2dd\	-cte	2G/	-cte	1ryy	2b-\	-cte	1gg	-cte
*custos:d	*	*custos:d	*	*	*	*	*	*	*	*	*	*	*	*
2g\	San-	2d/	San-	2b-\	San-	2dd\	San-	2G/	San-	.	2b-\	San-	.	.
!LO:LB:g=original	!	!LO:LB:g=original	!	!	!	!	!	!	!	!	!	!	!	!
=38-	=38-	=38-	=38-	=38-	=38-	=38-	=38-	=38-	=38-	=38-	=38-	=38-	=38-	=38-
1.d	-ctiſ-	1.d	-ctiſ-	2a\	-ctiſ-	1.dd	-ctiſ-	1.d	-ctiſ-	1ryy	1.dd	-ctiſ-	2ff#X\	San-
*	*	*	*	*custos:a	*	*	*	*	*	*	*	*	*	*
.	.	.	.	2b-\	.	.	.	.	.	.	.	.	2gg\	-ctiſ-
!	!	!	!	!LO:LB:g=original	!	!	!	!	!	!	!	!	!	!
=39-	=39-	=39-	=39-	=39-	=39-	=39-	=39-	=39-	=39-	=39-	=39-	=39-	=39-	=39-
.	.	.	.	2.a\	.	.	.	.	.	1ryy	.	.	2gg\	-si-
2d\	-si-	2d/	-si-	.	.	2dd\	-si-	2d\	-si-	.	2dd\	-si-	2ff#X\	.
.	.	.	.	4a\	-si-	.	.	.	.	.	.	.	.	.
=40-	=40-	=40-	=40-	=40-	=40-	=40-	=40-	=40-	=40-	=40-	=40-	=40-	=40-	=40-
*	*	*	*	*	*	*	*	*	*	*	*custos:a	*	*	*
!	!	!	!	!	!	!LO:TX:t=P:problem=# below	!	!	!	!	!	!	!	!
!	!	!	!	!LO:N:acc=#	!	!LO:N:acc=#	!	!	!	!	!	!	!	!
1g	-me	1d	-me	1bn	-me	1bn	-me	1G	-me	1ryy	1dd	-me	1gg	-me
!	!	!	!	!	!	!	!	!	!	!	!LO:PB:g=original	!	!	!
=41-	=41-	=41-	=41-	=41-	=41-	=41-	=41-	=41-	=41-	=41-	=41-	=41-	=41-	=41-
2c/	et	2e/	et	2g/	et	1r	.	00r	.	1ryy	00r	.	00r	.
4c/	me	4e/	me	4g/	me	.	.	.	.	.	.	.	.	.
4c/	di-	4e/	di-	4g/	di-	.	.	.	.	.	.	.	.	.
=42-	=42-	=42-	=42-	=42-	=42-	=42-	=42-	=42-	=42-	=42-	=42-	=42-	=42-	=42-
2A/	-miſ-	2f\	-miſ-	2a\	-miſ-	2ff\	et	.	.	1ryy	.	.	.	.
2B-/	-sa	2d/	-sa	2f/	-sa	4ff\	me	.	.	.	.	.	.	.
.	.	.	.	.	.	4ff\	di-	.	.	.	.	.	.	.
=43-	=43-	=43-	=43-	=43-	=43-	=43-	=43-	=43-	=43-	=43-	=43-	=43-	=43-	=43-
2B-/	ad	2f\	ad	2b-\	ad	2dd\	-miſ-	.	.	1ryy	.	.	.	.
1c\	Mo-	1e\	Mo-	1g\	mo-	2ee\	-sa	.	.	.	.	.	.	.
=44-	=44-	=44-	=44-	=44-	=44-	=44-	=44-	=44-	=44-	=44-	=44-	=44-	=44-	=44-
.	.	.	.	.	.	2ee\	ad	.	.	1ryy	.	.	.	.
2B-/	-na-	2d/	-na-	2dd\	-na-	1ff\	mo-	.	.	.	.	.	.	.
=45-	=45-	=45-	=45-	=45-	=45-	=45-	=45-	=45-	=45-	=45-	=45-	=45-	=45-	=45-
*	*	*	*	*	*	*custos:ee	*	*	*	*	*	*	*custos:dd	*
2.c/	-ſte-	2.g\	-ſte-	2.cc\	-ſte-	.	.	0r	.	1ryy	0r	.	00r	.
!	!	!	!	!	!	!LO:LB:g=original	!	!	!	!	!	!	!	!
.	.	.	.	.	.	2ee\	-na-	.	.	.	.	.	.	.
4c/	-ri-	4g\	-ri-	4cc\	-ri-	.	.	.	.	.	.	.	.	.
=46-	=46-	=46-	=46-	=46-	=46-	=46-	=46-	=46-	=46-	=46-	=46-	=46-	=46-	=46-
1d	-um	1f	-um	1a	-um	2.dd\	-ſte-	.	.	1ryy	.	.	.	.
.	.	.	.	.	.	4dd\	-ri-	.	.	.	.	.	.	.
=47-	=47-	=47-	=47-	=47-	=47-	=47-	=47-	=47-	=47-	=47-	=47-	=47-	=47-	=47-
1A	re-	1e	re-	1a	re-	2dd\	-um	1r	.	1ryy	1r	.	.	.
.	.	.	.	.	.	2cc#X\	re-	.	.	.	.	.	.	.
=48-	=48-	=48-	=48-	=48-	=48-	=48-	=48-	=48-	=48-	=48-	=48-	=48-	=48-	=48-
1d	-di	1f#X	-di	1a	-di	1dd	-di	2d\	et	1ryy	2a\	et	.	.
.	.	.	.	.	.	.	.	4d\	me	.	4a\	me	.	.
.	.	.	.	.	.	.	.	4d\	di-	.	4a\	di-	.	.
!	!	!	!	!	!	!	!	!	!	!	!	!	!LO:PB:g=original	!
=49-	=49-	=49-	=49-	=49-	=49-	=49-	=49-	=49-	=49-	=49-	=49-	=49-	=49-	=49-
00r	.	00r	.	00r	.	00r	.	2B-/	-miſ-	1ryy	2b-\	-miſ-	2dd\	et
.	.	.	.	.	.	.	.	2c/	-sa	.	2a\	-sa	4cc\	me
.	.	.	.	.	.	.	.	.	.	.	.	.	4cc\	di-
=50-	=50-	=50-	=50-	=50-	=50-	=50-	=50-	=50-	=50-	=50-	=50-	=50-	=50-	=50-
.	.	.	.	.	.	.	.	1d	ad	1ryy	2a\	ad	2a/	-miſ-
.	.	.	.	.	.	.	.	.	.	.	4f/	Mo-	2b-/	-sa
.	.	.	.	.	.	.	.	.	.	.	4f/	-na-	.	.
=51-	=51-	=51-	=51-	=51-	=51-	=51-	=51-	=51-	=51-	=51-	=51-	=51-	=51-	=51-
.	.	.	.	.	.	.	.	2A/	mo-	1ryy	2.a\	-ſte-	1cc	ad
.	.	.	.	.	.	.	.	2A/	-na-	.	.	.	.	.
.	.	.	.	.	.	.	.	.	.	.	4a\	-ri-	.	.
=52-	=52-	=52-	=52-	=52-	=52-	=52-	=52-	=52-	=52-	=52-	=52-	=52-	=52-	=52-
.	.	.	.	.	.	.	.	2.B-/	-ſte-	1ryy	1g	-um	2dd\	Mo-
.	.	.	.	.	.	.	.	.	.	.	.	.	2dd\	-na-
.	.	.	.	.	.	.	.	4B-/	-ri-	.	.	.	.	.
=53-	=53-	=53-	=53-	=53-	=53-	=53-	=53-	=53-	=53-	=53-	=53-	=53-	=53-	=53-
*	*	*	*	*	*	*	*	*custos:c	*	*	*	*	*	*
0r	.	0r	.	0r	.	0r	.	1B-	-um	1ryy	1.b-	re-	2.dd\	-ſte-
.	.	.	.	.	.	.	.	.	.	.	.	.	4dd\	-ri-
!	!	!	!	!	!	!	!	!LO:PB:g=original	!	!	!	!	!	!
=54-	=54-	=54-	=54-	=54-	=54-	=54-	=54-	=54-	=54-	=54-	=54-	=54-	=54-	=54-
.	.	.	.	.	.	.	.	0c	re-	1ryy	.	.	1cc	-um
.	.	.	.	.	.	.	.	.	.	.	2a\	.	.	.
=55-	=55-	=55-	=55-	=55-	=55-	=55-	=55-	=55-	=55-	=55-	=55-	=55-	=55-	=55-
1r	.	1r	.	1r	.	1r	.	.	.	1ryy	1g	.	1cc	re-
=56-	=56-	=56-	=56-	=56-	=56-	=56-	=56-	=56-	=56-	=56-	=56-	=56-	=56-	=56-
2f\	et	2f\	et	2a\	et	2cc\	et	1F	-di	1ryy	1a	-di	1cc	-di
4f\	me	4f\	me	4a\	me	4cc\	me	.	.	.	.	.	.	.
4f\	di-	4f\	di-	4a\	di-	4cc\	di-	.	.	.	.	.	.	.
=57-	=57-	=57-	=57-	=57-	=57-	=57-	=57-	=57-	=57-	=57-	=57-	=57-	=57-	=57-
2d\	-miſ-	2f\	-miſ-	2b-\	-miſ-	2ff\	-miſ-	1r	.	1ryy	1r	.	1r	.
*custos:f	*	*custos:f	*	*custos:a	*	*	*	*	*	*	*	*	*	*
2e\	-sa	2g\	-sa	2cc\	-sa	2ee\	-sa	.	.	.	.	.	.	.
!LO:LB:g=original	!	!LO:PB:g=original	!	!LO:PB:g=original	!	!	!	!	!	!	!	!	!	!
=58-	=58-	=58-	=58-	=58-	=58-	=58-	=58-	=58-	=58-	=58-	=58-	=58-	=58-	=58-
00r	.	00r	.	00r	.	00r	.	2f\	et	1ryy	2a\	et	2cc\	et
.	.	.	.	.	.	.	.	4f\	me	.	4a\	me	4cc\	me
.	.	.	.	.	.	.	.	4f\	di-	.	4a\	di-	4cc\	di-
=59-	=59-	=59-	=59-	=59-	=59-	=59-	=59-	=59-	=59-	=59-	=59-	=59-	=59-	=59-
.	.	.	.	.	.	.	.	2d\	-miſ-	1ryy	2b-\	-miſ-	2ff\	-miſ-
.	.	.	.	.	.	.	.	2e\	-sa	.	2cc\	-sa	2ee\	-sa
=60-	=60-	=60-	=60-	=60-	=60-	=60-	=60-	=60-	=60-	=60-	=60-	=60-	=60-	=60-
.	.	.	.	.	.	.	.	2f\	ad	1ryy	2a\	ad	2cc\	ad
.	.	.	.	.	.	.	.	4f\	mo-	.	4a\	Mo-	4cc\	Mo-
.	.	.	.	.	.	.	.	4f\	-na-	.	4a\	-na-	4cc\	-na-
=61-	=61-	=61-	=61-	=61-	=61-	=61-	=61-	=61-	=61-	=61-	=61-	=61-	=61-	=61-
.	.	.	.	.	.	.	.	2.B-/	-ſte-	1ryy	2.b-\	-ſte-	2.dd\	-ſte-
*	*	*	*	*	*	*	*	*	*	*	*custos:a	*	*	*
.	.	.	.	.	.	.	.	4B-/	-ri-	.	4b-\	-ri-	4dd\	-ri-
!	!	!	!	!	!	!	!	!	!	!	!LO:LB:g=original	!	!	!
=62-	=62-	=62-	=62-	=62-	=62-	=62-	=62-	=62-	=62-	=62-	=62-	=62-	=62-	=62-
*	*	*	*	*	*	*	*	*	*	*	*	*	*custos:ff	*
0r	.	0r	.	0r	.	0r	.	1d	-um	1ryy	1a	-um	2ff\	-um
!	!	!	!	!	!	!	!	!	!	!	!	!	!LO:LB:g=original	!
.	.	.	.	.	.	.	.	.	.	.	.	.	1ff\	re-
=63-	=63-	=63-	=63-	=63-	=63-	=63-	=63-	=63-	=63-	=63-	=63-	=63-	=63-	=63-
.	.	.	.	.	.	.	.	1c	re-	1ryy	1b-	re-	.	.
.	.	.	.	.	.	.	.	.	.	.	.	.	2ee\	.
=64-	=64-	=64-	=64-	=64-	=64-	=64-	=64-	=64-	=64-	=64-	=64-	=64-	=64-	=64-
2f\	et	2f\	et	2a\	et	2cc\	et	1F	-di	1ryy	1a	-di	1ff	-di
4f\	me	4f\	me	4a\	me	4cc\	me	.	.	.	.	.	.	.
4f\	di-	4f\	di-	4a\	di-	4cc\	di-	.	.	.	.	.	.	.
=65-	=65-	=65-	=65-	=65-	=65-	=65-	=65-	=65-	=65-	=65-	=65-	=65-	=65-	=65-
2d\	-miſ-	2f\	-miſ-	2b-\	-miſ-	2ff\	-miſ-	00r	.	1ryy	00r	.	00r	.
2e\	-sa	2g\	-sa	2cc\	-sa	2ee\	-sa	.	.	.	.	.	.	.
=66-	=66-	=66-	=66-	=66-	=66-	=66-	=66-	=66-	=66-	=66-	=66-	=66-	=66-	=66-
2f\	ad	2a\	ad	2a\	ad	2cc\	ad	.	.	1ryy	.	.	.	.
4d\	mo-	4b-\	mo-	4dd\	mo-	4ff\	Mo-	.	.	.	.	.	.	.
4d\	-na-	4b-\	-na-	4dd\	-na-	4ff\	-na-	.	.	.	.	.	.	.
=67-	=67-	=67-	=67-	=67-	=67-	=67-	=67-	=67-	=67-	=67-	=67-	=67-	=67-	=67-
2.e-X\	-ſte-	2.g\	-ſte-	2.b-\	-ſte-	2.ee-X\	-ſte-	.	.	1ryy	.	.	.	.
4e-\	-ri-	4g\	-ri-	4b-\	-ri-	4ee-\	-ri-	.	.	.	.	.	.	.
=68-	=68-	=68-	=68-	=68-	=68-	=68-	=68-	=68-	=68-	=68-	=68-	=68-	=68-	=68-
*	*	*	*	*	*	*custos:dd	*	*	*	*	*	*	*	*
1c	-um	2g\	-um	1cc	-um	1ee-X	-um	.	.	1ryy	.	.	.	.
.	.	1g\	re-	.	.	.	.	.	.	.	.	.	.	.
!	!	!	!	!	!	!LO:PB:g=original	!	!	!	!	!	!	!	!
=69-	=69-	=69-	=69-	=69-	=69-	=69-	=69-	=69-	=69-	=69-	=69-	=69-	=69-	=69-
1d	re-	.	.	1a	re-	1dd	re-	2r	.	1ryy	2r	.	2r	.
.	.	2f#X\	.	.	.	.	.	2d\	ad	.	2dd\	ad	2dd\	ad
=70-	=70-	=70-	=70-	=70-	=70-	=70-	=70-	=70-	=70-	=70-	=70-	=70-	=70-	=70-
2G/	-di	2g\	-di	2b-\	-di	2dd\	-di	4g\	mo-	1ryy	4b-\	mo-	4dd\	mo-
.	.	.	.	.	.	.	.	4g\	-na-	.	4b-\	-na-	4dd\	-na-
*	*	*	*	*	*	*	*	*custos:g	*	*	*	*	*	*
2G/	ad	2g\	ad	2b-\	ad	2dd\	ad	1g\	-ſte-	.	1b-\	-ſte-	1dd\	-ſte-
=71-	=71-	=71-	=71-	=71-	=71-	=71-	=71-	=71-	=71-	=71-	=71-	=71-	=71-	=71-
4G/	mo-	4g\	mo-	4b-\	mo-	4dd\	Mo-	.	.	1ryy	.	.	.	.
4G/	-na-	4g\	-na-	4b-\	-na-	4dd\	-na-	.	.	.	.	.	.	.
!	!	!	!	!	!	!	!	!LO:LB:g=original	!	!	!	!	!	!
1G/	-ſte-	1g\	-ſte-	1b-\	-ſte-	1dd\	-ſte-	2g\	-ri-	.	2b-\	-ri-	2dd\	-ri-
=72-	=72-	=72-	=72-	=72-	=72-	=72-	=72-	=72-	=72-	=72-	=72-	=72-	=72-	=72-
.	.	.	.	.	.	.	.	1g	-um	1ryy	1dd	-um	1gg	-um
2G/	-ri-	2d/	-ri-	2b-\	-ri-	2dd\	-ri-	.	.	.	.	.	.	.
=73-	=73-	=73-	=73-	=73-	=73-	=73-	=73-	=73-	=73-	=73-	=73-	=73-	=73-	=73-
*	*	*custos:d	*	*	*	*	*	*	*	*	*	*	*	*
1d	-um	2f#X\	-um	2a\	-um	1dd	-um	0d	re-	1ryy	4dd\	re-	2ff#X\	re-
.	.	.	.	.	.	.	.	.	.	.	4cc\	.	.	.
!	!	!LO:LB:g=original	!	!	!	!	!	!	!	!	!	!	!	!
.	.	4d/	re-	2b-\	.	.	.	.	.	.	4b-\	.	1gg\	.
.	.	4e\	.	.	.	.	.	.	.	.	4cc\	.	.	.
=74-	=74-	=74-	=74-	=74-	=74-	=74-	=74-	=74-	=74-	=74-	=74-	=74-	=74-	=74-
!	!	!LO:TX:t=P:problem=# below	!	!	!	!	!	!	!	!	!	!	!	!
1d	re-	4f#X\	.	2a\	re-	1dd	re-	.	.	1ryy	2dd\	.	.	.
.	.	4g\	.	.	.	.	.	.	.	.	.	.	.	.
*	*	*	*	*custos:bn	*	*	*	*	*	*	*	*	*	*
.	.	4a\	.	2dd\	.	.	.	.	.	.	2a\	.	2ff#X\	.
.	.	4d/	.	.	.	.	.	.	.	.	.	.	.	.
!	!	!	!	!LO:LB:g=original	!	!	!	!	!	!	!	!	!	!
=75-	=75-	=75-	=75-	=75-	=75-	=75-	=75-	=75-	=75-	=75-	=75-	=75-	=75-	=75-
!	!	!	!	!LO:N:acc=#	!	!	!	!	!	!	!LO:N:acc=#	!	!	!
1g	-di	1d	-di	1bn	-di	1dd	-di	1G	-di	1ryy	1bn	-di	1gg	-di
=76-	=76-	=76-	=76-	=76-	=76-	=76-	=76-	=76-	=76-	=76-	=76-	=76-	=76-	=76-
0r	.	0r	.	0r	.	0r	.	0r	.	1ryy	1b-X	Ro-	1dd	Ro-
=77-	=77-	=77-	=77-	=77-	=77-	=77-	=77-	=77-	=77-	=77-	=77-	=77-	=77-	=77-
.	.	.	.	.	.	.	.	.	.	1ryy	2dd\	-ga-	2ff\	-ga-
.	.	.	.	.	.	.	.	.	.	.	2cc#X\	-ui	2ee\	-ui
=78-	=78-	=78-	=78-	=78-	=78-	=78-	=78-	=78-	=78-	=78-	=78-	=78-	=78-	=78-
2r	.	2r	.	2r	.	2r	.	2r	.	1ryy	1dd	te	1dd	te
2g\	Ro-	2g\	ro-	2b-\	ro-	2dd\	ro-	2G/	ro-	.	.	.	.	.
=79-	=79-	=79-	=79-	=79-	=79-	=79-	=79-	=79-	=79-	=79-	=79-	=79-	=79-	=79-
2d\	-ga-	2g\	-ga-	2g/	-ga-	2dd\	-ga-	2B-/	-ga-	1ryy	1r	.	1r	.
2a\	-ui	2e/	-ui	2a\	-ui	2cc#X\	-ui	2A/	-ui	.	.	.	.	.
=80-	=80-	=80-	=80-	=80-	=80-	=80-	=80-	=80-	=80-	=80-	=80-	=80-	=80-	=80-
1d	te	1f#X	te	1a	te	1dd	te	2.d\	te	1ryy	2r	.	2r	.
.	.	.	.	.	.	.	.	.	.	.	2a\	ro-	2dd\	ro-
.	.	.	.	.	.	.	.	4d\	ro-	.	.	.	.	.
=81-	=81-	=81-	=81-	=81-	=81-	=81-	=81-	=81-	=81-	=81-	=81-	=81-	=81-	=81-
00r	.	00r	.	00r	.	00r	.	2G/	-ga-	1ryy	2b-\	-ga-	2dd\	-ga-
.	.	.	.	.	.	.	.	2A/	-ui	.	2a\	-ui	2cc#X\	-ui
=82-	=82-	=82-	=82-	=82-	=82-	=82-	=82-	=82-	=82-	=82-	=82-	=82-	=82-	=82-
.	.	.	.	.	.	.	.	2d\	te	1ryy	2a\	te	2dd\	te
.	.	.	.	.	.	.	.	2d\	nec	.	2a\	nec	2dd\	nec
=83-	=83-	=83-	=83-	=83-	=83-	=83-	=83-	=83-	=83-	=83-	=83-	=83-	=83-	=83-
.	.	.	.	.	.	.	.	2.B-/	po-	1ryy	2.b-\	po-	2.dd\	po-
*	*	*	*	*	*	*	*	*	*	*	*custos:g	*	*custos:een	*
.	.	.	.	.	.	.	.	4B-/	-tu-	.	4b-\	-tu-	4dd\	-tu-
!	!	!	!	!	!	!	!	!	!	!	!LO:LB:g=original	!	!LO:LB:g=original	!
=84-	=84-	=84-	=84-	=84-	=84-	=84-	=84-	=84-	=84-	=84-	=84-	=84-	=84-	=84-
.	.	.	.	.	.	.	.	2c/	-i	1ryy	2g/	-i	2ee-X\	-i
.	.	.	.	.	.	.	.	2c/	ob-	.	2cc\	ob-	2ee-\	ob-
=85-	=85-	=85-	=85-	=85-	=85-	=85-	=85-	=85-	=85-	=85-	=85-	=85-	=85-	=85-
0r	.	0r	.	0r	.	0r	.	2.d\	-ti-	1ryy	2.a\	-ti-	2.dd\	-ti-
*	*	*	*	*	*	*	*	*custos:c	*	*	*	*	*	*
.	.	.	.	.	.	.	.	4d\	-ne-	.	4a\	-ne-	4dd\	-ne-
!	!	!	!	!	!	!	!	!LO:LB:g=original	!	!	!	!	!	!
=86-	=86-	=86-	=86-	=86-	=86-	=86-	=86-	=86-	=86-	=86-	=86-	=86-	=86-	=86-
.	.	.	.	.	.	.	.	2c/	-re	1ryy	2cc\	-re	2ee-X\	-re
.	.	.	.	.	.	.	.	2e-X\	quod	.	2g/	quod	2cc\	quod
=87-	=87-	=87-	=87-	=87-	=87-	=87-	=87-	=87-	=87-	=87-	=87-	=87-	=87-	=87-
1r	.	1r	.	1r	.	1r	.	2.d\	Vo-	1ryy	2.a\	Vo-	2.dd\	Vo-
.	.	.	.	.	.	.	.	4d\	-lu-	.	4a\	-lu-	4dd\	-lu-
=88-	=88-	=88-	=88-	=88-	=88-	=88-	=88-	=88-	=88-	=88-	=88-	=88-	=88-	=88-
2r	.	2r	.	2r	.	2r	.	1G	-i	1ryy	1b-	-i	1dd	-i
2g\	nec	2g\	nec	2b-\	nec	2dd\	nec	.	.	.	.	.	.	.
=89-	=89-	=89-	=89-	=89-	=89-	=89-	=89-	=89-	=89-	=89-	=89-	=89-	=89-	=89-
2.d\	po-	2.a\	po-	2.dd\	po-	2.ff\	po-	00r	.	1ryy	00r	.	00r	.
4d\	-tu-	4a\	-tu-	4dd\	-tu-	4ff\	-tu-	.	.	.	.	.	.	.
=90-	=90-	=90-	=90-	=90-	=90-	=90-	=90-	=90-	=90-	=90-	=90-	=90-	=90-	=90-
!	!	!	!	!LO:N:acc=#	!	!	!	!	!	!	!	!	!	!
2g\	-i	2g\	-i	2bn\	-i	2dd\	-i	.	.	1ryy	.	.	.	.
2e\	ob-	2g\	ob-	2cc\	ob-	2ee\	ob-	.	.	.	.	.	.	.
=91-	=91-	=91-	=91-	=91-	=91-	=91-	=91-	=91-	=91-	=91-	=91-	=91-	=91-	=91-
2.f\	-ti-	2.f\	-ti-	2.a\	-ti-	2.cc\	-ti-	.	.	1ryy	.	.	.	.
4f\	-ne-	4f\	-ne-	4a\	-ne-	4cc\	-ne-	.	.	.	.	.	.	.
=92-	=92-	=92-	=92-	=92-	=92-	=92-	=92-	=92-	=92-	=92-	=92-	=92-	=92-	=92-
2d\	-re	2f\	-re	2dd\	-re	2ff\	-re	.	.	1ryy	.	.	.	.
*	*	*custos:a	*	*	*	*custos:ee	*	*	*	*	*	*	*	*
2d\	quod	2f\	quod	2dd\	quod	2ff\	quod	.	.	.	.	.	.	.
!	!	!LO:LB:g=original	!	!	!	!LO:LB:g=original	!	!	!	!	!	!	!	!
=93-	=93-	=93-	=93-	=93-	=93-	=93-	=93-	=93-	=93-	=93-	=93-	=93-	=93-	=93-
2.A/	Vo-	2.a\	Vo-	2dd\	Vo-	2.ee\	Vo-	1r	.	1ryy	1r	.	0r	.
.	.	.	.	2cc#X\	-lu-	.	.	.	.	.	.	.	.	.
4A/	-lu-	4a\	-lu-	.	.	4ee\	-lu-	.	.	.	.	.	.	.
=94-	=94-	=94-	=94-	=94-	=94-	=94-	=94-	=94-	=94-	=94-	=94-	=94-	=94-	=94-
*custos:g	*	*	*	*	*	*	*	*	*	*	*	*	*	*
1d	-i	1f#X	-i	1dd	-i	1dd	-i	2r	.	1ryy	2r	.	.	.
.	.	.	.	.	.	.	.	2d\	nec	.	2a\	nec	.	.
!LO:LB:g=original	!	!	!	!	!	!	!	!	!	!	!	!	!	!
=95-	=95-	=95-	=95-	=95-	=95-	=95-	=95-	=95-	=95-	=95-	=95-	=95-	=95-	=95-
00r	.	00r	.	00r	.	00r	.	2.c/	po-	1ryy	2.cc\	po-	2r	.
.	.	.	.	.	.	.	.	.	.	.	.	.	2ee\	nec
.	.	.	.	.	.	.	.	4c/	-tu-	.	4cc\	-tu-	.	.
=96-	=96-	=96-	=96-	=96-	=96-	=96-	=96-	=96-	=96-	=96-	=96-	=96-	=96-	=96-
.	.	.	.	.	.	.	.	2A/	-i	1ryy	2cc\	-i	2.ff\	po-
.	.	.	.	.	.	.	.	2A/	ob-	.	2cc\	ob-	.	.
.	.	.	.	.	.	.	.	.	.	.	.	.	4ff\	-tu-
=97-	=97-	=97-	=97-	=97-	=97-	=97-	=97-	=97-	=97-	=97-	=97-	=97-	=97-	=97-
.	.	.	.	.	.	.	.	2.B-/	-ti-	1ryy	2.b-\	-ti-	2dd\	-i
.	.	.	.	.	.	.	.	.	.	.	.	.	2dd\	ob-
.	.	.	.	.	.	.	.	4B-/	-ne-	.	4b-\	-ne-	.	.
=98-	=98-	=98-	=98-	=98-	=98-	=98-	=98-	=98-	=98-	=98-	=98-	=98-	=98-	=98-
.	.	.	.	.	.	.	.	2G/	-re	1ryy	2b-\	-re	2.ee\	-ti-
.	.	.	.	.	.	.	.	2G/	quod	.	2b-\	quod	.	.
.	.	.	.	.	.	.	.	.	.	.	.	.	4ee\	-ne-
=99-	=99-	=99-	=99-	=99-	=99-	=99-	=99-	=99-	=99-	=99-	=99-	=99-	=99-	=99-
*	*	*	*	*custos:g	*	*	*	*	*	*	*	*	*	*
0r	.	0r	.	0r	.	0r	.	1.A	Vo-	1ryy	1.a	Vo-	2cc#X\	-re
.	.	.	.	.	.	.	.	.	.	.	.	.	2dd\	quod
=100-	=100-	=100-	=100-	=100-	=100-	=100-	=100-	=100-	=100-	=100-	=100-	=100-	=100-	=100-
.	.	.	.	.	.	.	.	.	.	1ryy	.	.	2dd\	Vo-
.	.	.	.	.	.	.	.	2A/	-lu-	.	2a\	-lu-	2cc#X\	-lu-
!	!	!	!	!LO:LB:g=original	!	!	!	!	!	!	!	!	!	!
=101-	=101-	=101-	=101-	=101-	=101-	=101-	=101-	=101-	=101-	=101-	=101-	=101-	=101-	=101-
2r	.	2r	.	2r	.	2r	.	2d\	-i	1ryy	2a\	-i	2dd\	-i
*	*	*	*	*	*	*	*	*	*	*	*	*	*custos:gg	*
2g\	quod	2g\	quod	2g/	quod	2dd\	quod	2G/	quod	.	2b-\	quod	2gg\	quod
!	!	!	!	!	!	!	!	!	!	!	!	!	!LO:LB:g=original	!
=102-	=102-	=102-	=102-	=102-	=102-	=102-	=102-	=102-	=102-	=102-	=102-	=102-	=102-	=102-
1.d	Vo-	2g\	Vo-	2g/	Vo-	1.dd	Vo-	1.d	Vo-	1ryy	2b-\	Vo-	2gg\	Vo-
.	.	2d/	-lu-	4a\	.	.	.	.	.	.	4a\	.	4ff#X\	.
*	*	*	*	*	*	*	*	*	*	*	*custos:a	*	*	*
.	.	.	.	4b-\	.	.	.	.	.	.	4g/	.	4ee\	.
!	!	!	!	!	!	!	!	!	!	!	!LO:LB:g=original	!	!	!
=103-	=103-	=103-	=103-	=103-	=103-	=103-	=103-	=103-	=103-	=103-	=103-	=103-	=103-	=103-
.	.	1a	-i	2.a\	.	.	.	.	.	1ryy	2.a\	.	2.ff#X\	.
2d\	-lu-	.	.	.	.	2dd\	-lu-	2d\	-lu-	.	.	.	.	.
.	.	.	.	4a\	-lu-	.	.	.	.	.	4a\	-lu-	4ff#\	-lu-
=104-	=104-	=104-	=104-	=104-	=104-	=104-	=104-	=104-	=104-	=104-	=104-	=104-	=104-	=104-
*	*	*	*	*	*	*	*	*custos:B-	*	*	*	*	*	*
!	!	!LO:TX:t=P:problem=niewyraźne źródło	!	!	!	!	!	!	!	!	!	!	!	!
!	!	!	!	!LO:N:acc=#	!	!	!	!	!	!	!	!	!	!
1g	-i	1r	.	1bn	-i	1dd	-i	1G	-i	1ryy	1g	-i	1gg	-i
!	!	!	!	!	!	!	!	!LO:LB:g=original	!	!	!	!	!	!
=105-	=105-	=105-	=105-	=105-	=105-	=105-	=105-	=105-	=105-	=105-	=105-	=105-	=105-	=105-
*M3/2	*	*M3/2	*	*M3/2	*	*M3/2	*	*M3/2	*	*M3/2	*M3/2	*	*M3/2	*
!	!	!	!	!	!	!	!	!LO:N:vis=00	!	!	!	!	!	!
00.r	.	00.r	.	00.r	.	00.r	.	00.r	.	1.ryy	1b-	Ro-	1dd	Ro-
.	.	.	.	.	.	.	.	.	.	.	1b-\	-ga-	1dd\	-ga-
=106-	=106-	=106-	=106-	=106-	=106-	=106-	=106-	=106-	=106-	=106-	=106-	=106-	=106-	=106-
.	.	.	.	.	.	.	.	.	.	1.ryy	.	.	.	.
.	.	.	.	.	.	.	.	.	.	.	1b-	-ui	1dd	-ui
=107-	=107-	=107-	=107-	=107-	=107-	=107-	=107-	=107-	=107-	=107-	=107-	=107-	=107-	=107-
.	.	.	.	.	.	.	.	.	.	1.ryy	0dd	De-	0ff	De-
=108-	=108-	=108-	=108-	=108-	=108-	=108-	=108-	=108-	=108-	=108-	=108-	=108-	=108-	=108-
.	.	.	.	.	.	.	.	.	.	1.ryy	.	.	.	.
.	.	.	.	.	.	.	.	.	.	.	1dd	-um	1ff	-um
=109-	=109-	=109-	=109-	=109-	=109-	=109-	=109-	=109-	=109-	=109-	=109-	=109-	=109-	=109-
!	!	!	!	!	!	!	!	!LO:N:vis=0	!	!	!	!	!	!
0.r	.	0.r	.	0.r	.	0.r	.	0.r	.	1.ryy	0cc#X	me-	0ee	me-
=110-	=110-	=110-	=110-	=110-	=110-	=110-	=110-	=110-	=110-	=110-	=110-	=110-	=110-	=110-
.	.	.	.	.	.	.	.	.	.	1.ryy	.	.	.	.
.	.	.	.	.	.	.	.	.	.	.	1dd	-um	1dd	-um
=111-	=111-	=111-	=111-	=111-	=111-	=111-	=111-	=111-	=111-	=111-	=111-	=111-	=111-	=111-
*M2/2	*	*M2/2	*	*M2/2	*	*M2/2	*	*M2/2	*	*M2/2	*M2/2	*	*M2/2	*
*met(c|)	*	*met(c|)	*	*met(c|)	*	*met(c|)	*	*met(c|)	*	*met(c|)	*met(c|)	*	*met(c|)	*
1f	et	1f	et	1a	et	1cc	et	0r	.	1ryy	0r	.	0r	.
=112-	=112-	=112-	=112-	=112-	=112-	=112-	=112-	=112-	=112-	=112-	=112-	=112-	=112-	=112-
2d\	e-	2f\	e-	2b-\	e-	2dd\	e-	.	.	1ryy	.	.	.	.
2.e-X\	-xau-	2.g\	-xau-	2.g/	-xau-	2.b-/	-xau-	.	.	.	.	.	.	.
=113-	=113-	=113-	=113-	=113-	=113-	=113-	=113-	=113-	=113-	=113-	=113-	=113-	=113-	=113-
.	.	.	.	.	.	.	.	1r	.	1ryy	1r	.	1r	.
4e-X\	-di-	4g\	-di-	4g/	-di-	4b-/	-di-	.	.	.	.	.	.	.
2c/	-uit	2e-X/	-uit	2a\	-uit	2cc\	-uit	.	.	.	.	.	.	.
=114-	=114-	=114-	=114-	=114-	=114-	=114-	=114-	=114-	=114-	=114-	=114-	=114-	=114-	=114-
1B-	me	1f	me	1b-	me	1dd	me	2r	.	1ryy	2r	.	2r	.
.	.	.	.	.	.	.	.	1B-/	et	.	1b-\	et	1dd\	et
=115-	=115-	=115-	=115-	=115-	=115-	=115-	=115-	=115-	=115-	=115-	=115-	=115-	=115-	=115-
00r	.	00r	.	00r	.	00r	.	.	.	1ryy	.	.	.	.
.	.	.	.	.	.	.	.	2c/	e-	.	2a\	e-	2ee\	e-
=116-	=116-	=116-	=116-	=116-	=116-	=116-	=116-	=116-	=116-	=116-	=116-	=116-	=116-	=116-
.	.	.	.	.	.	.	.	2.A/	-xau-	1ryy	2.a\	-xau-	2.cc\	-xau-
.	.	.	.	.	.	.	.	4A/	-di-	.	4a\	-di-	4cc\	-di-
=117-	=117-	=117-	=117-	=117-	=117-	=117-	=117-	=117-	=117-	=117-	=117-	=117-	=117-	=117-
.	.	.	.	.	.	.	.	2B-/	-uit	1ryy	2f/	-uit	2dd\	-uit
.	.	.	.	.	.	.	.	2B-/	me	.	2b-\	me	2dd\	me
=118-	=118-	=118-	=118-	=118-	=118-	=118-	=118-	=118-	=118-	=118-	=118-	=118-	=118-	=118-
.	.	.	.	.	.	.	.	1f	et	1ryy	1a	et	1cc	et
=119-	=119-	=119-	=119-	=119-	=119-	=119-	=119-	=119-	=119-	=119-	=119-	=119-	=119-	=119-
0r	.	0r	.	0r	.	0r	.	2d\	e-	1ryy	2b-\	e-	2dd\	e-
.	.	.	.	.	.	.	.	2.e-X\	-xau-	.	2.g/	-xau-	2.b-/	-xau-
=120-	=120-	=120-	=120-	=120-	=120-	=120-	=120-	=120-	=120-	=120-	=120-	=120-	=120-	=120-
.	.	.	.	.	.	.	.	.	.	1ryy	.	.	.	.
*	*	*	*	*	*	*	*	*	*	*	*	*	*custos:cc	*
.	.	.	.	.	.	.	.	4e-X\	-di-	.	4g/	-di-	4b-/	-di-
!	!	!	!	!	!	!	!	!	!	!	!	!	!LO:LB:g=original	!
.	.	.	.	.	.	.	.	2c/	-uit	.	2a\	-uit	2cc\	-uit
=121-	=121-	=121-	=121-	=121-	=121-	=121-	=121-	=121-	=121-	=121-	=121-	=121-	=121-	=121-
*	*	*custos:g	*	*	*	*	*	*	*	*	*	*	*	*
1r	.	1r	.	1r	.	1r	.	1d	me	1ryy	1f#X	me	1a	me
!	!	!LO:LB:g=original	!	!	!	!	!	!	!	!	!	!	!	!
=122-	=122-	=122-	=122-	=122-	=122-	=122-	=122-	=122-	=122-	=122-	=122-	=122-	=122-	=122-
*M3/2	*	*M3/2	*	*M3/2	*	*M3/2	*	*M3/2	*	*M3/2	*M3/2	*	*M3/2	*
00.r	.	00.r	.	00.r	.	00.r	.	1d	Ro-	1.ryy	1a	Ro-	1dd	Ro-
.	.	.	.	.	.	.	.	1g\	-ga-	.	1b-\	-ga-	1dd\	-ga-
=123-	=123-	=123-	=123-	=123-	=123-	=123-	=123-	=123-	=123-	=123-	=123-	=123-	=123-	=123-
.	.	.	.	.	.	.	.	.	.	1.ryy	.	.	.	.
*	*	*	*	*	*	*	*	*	*	*	*custos:a	*	*	*
.	.	.	.	.	.	.	.	1e	-ui	.	1g	-ui	1cc	-ui
!	!	!	!	!	!	!	!	!	!	!	!LO:LB:g=original	!	!	!
=124-	=124-	=124-	=124-	=124-	=124-	=124-	=124-	=124-	=124-	=124-	=124-	=124-	=124-	=124-
.	.	.	.	.	.	.	.	0f	De-	1.ryy	0a	De-	0cc	De-
=125-	=125-	=125-	=125-	=125-	=125-	=125-	=125-	=125-	=125-	=125-	=125-	=125-	=125-	=125-
.	.	.	.	.	.	.	.	.	.	1.ryy	.	.	.	.
.	.	.	.	.	.	.	.	1c	-um	.	1cc	-um	1ee-X	-um
=126-	=126-	=126-	=126-	=126-	=126-	=126-	=126-	=126-	=126-	=126-	=126-	=126-	=126-	=126-
!	!	!	!	!	!	!	!	!	!	!	!LO:N:acc=#	!	!	!
0.r	.	0.r	.	0.r	.	0.r	.	0g	me-	1.ryy	0bn	me-	0dd	me-
=127-	=127-	=127-	=127-	=127-	=127-	=127-	=127-	=127-	=127-	=127-	=127-	=127-	=127-	=127-
*custos:G	*	*	*	*	*	*	*	*	*	*	*	*	*	*
.	.	.	.	.	.	.	.	.	.	1.ryy	.	.	.	.
*	*	*	*	*	*	*	*	*custos:g	*	*	*	*	*	*
.	.	.	.	.	.	.	.	1c	-um	.	1cc	-um	1cc	-um
!LO:LB:g=original	!	!	!	!	!	!	!	!LO:LB:g=original	!	!	!	!	!	!
=128-	=128-	=128-	=128-	=128-	=128-	=128-	=128-	=128-	=128-	=128-	=128-	=128-	=128-	=128-
!	!	!	!	!	!	!	!	!LO:N:vis=00	!	!	!LO:N:vis=00	!	!LO:N:vis=00	!
1G	Ro-	1g	Ro-	1b-	Ro-	1dd	Ro-	00.r	.	1.ryy	00.r	.	00.r	.
1c\	-ga-	1g\	-ga-	1g\	-ga-	1cc\	-ga-	.	.	.	.	.	.	.
=129-	=129-	=129-	=129-	=129-	=129-	=129-	=129-	=129-	=129-	=129-	=129-	=129-	=129-	=129-
.	.	.	.	.	.	.	.	.	.	1.ryy	.	.	.	.
*	*	*	*	*custos:b-	*	*custos:dd	*	*	*	*	*	*	*	*
1F	-ui	1f	-ui	1a	-ui	1cc	-ui	.	.	.	.	.	.	.
!	!	!	!	!LO:LB:g=original	!	!LO:LB:g=original	!	!	!	!	!	!	!	!
=130-	=130-	=130-	=130-	=130-	=130-	=130-	=130-	=130-	=130-	=130-	=130-	=130-	=130-	=130-
0B-	De-	0f	De-	0b-	De-	0dd	De-	.	.	1.ryy	.	.	.	.
=131-	=131-	=131-	=131-	=131-	=131-	=131-	=131-	=131-	=131-	=131-	=131-	=131-	=131-	=131-
.	.	.	.	.	.	.	.	.	.	1.ryy	.	.	.	.
1G	-um	1g	-um	1b-	-um	1dd	-um	.	.	.	.	.	.	.
=132-	=132-	=132-	=132-	=132-	=132-	=132-	=132-	=132-	=132-	=132-	=132-	=132-	=132-	=132-
!	!	!	!	!	!	!	!	!LO:N:vis=0	!	!	!LO:N:vis=0	!	!LO:N:vis=0	!
0A	me-	0e	me-	0a	me-	0cc#X	me-	0.r	.	1.ryy	0.r	.	0.r	.
=133-	=133-	=133-	=133-	=133-	=133-	=133-	=133-	=133-	=133-	=133-	=133-	=133-	=133-	=133-
.	.	.	.	.	.	.	.	.	.	1.ryy	.	.	.	.
1d	-um	1f#X	-um	1a	-um	1dd	-um	.	.	.	.	.	.	.
=134-	=134-	=134-	=134-	=134-	=134-	=134-	=134-	=134-	=134-	=134-	=134-	=134-	=134-	=134-
*M2/2	*	*M2/2	*	*M2/2	*	*M2/2	*	*M2/2	*	*M2/2	*M2/2	*	*M2/2	*
*met(c|)	*	*met(c|)	*	*met(c|)	*	*met(c|)	*	*met(c|)	*	*met(c|)	*met(c|)	*	*met(c|)	*
00r	.	00r	.	00r	.	00r	.	2g\	et	1ryy	2b-\	et	2dd\	et
.	.	.	.	.	.	.	.	1e-X\	e-	.	1cc\	e-	1ee\	e-
=135-	=135-	=135-	=135-	=135-	=135-	=135-	=135-	=135-	=135-	=135-	=135-	=135-	=135-	=135-
.	.	.	.	.	.	.	.	.	.	1ryy	.	.	.	.
.	.	.	.	.	.	.	.	1f\	-xau-	.	1a\	-xau-	2cc\	-xau-
=136-	=136-	=136-	=136-	=136-	=136-	=136-	=136-	=136-	=136-	=136-	=136-	=136-	=136-	=136-
.	.	.	.	.	.	.	.	.	.	1ryy	.	.	1.dd	-di-
.	.	.	.	.	.	.	.	1d\	-di-	.	1b-\	-di-	.	.
=137-	=137-	=137-	=137-	=137-	=137-	=137-	=137-	=137-	=137-	=137-	=137-	=137-	=137-	=137-
.	.	.	.	.	.	.	.	.	.	1ryy	.	.	.	.
.	.	.	.	.	.	.	.	2e-X\	-uit	.	2g\	-uit	2cc\	-uit
=138-	=138-	=138-	=138-	=138-	=138-	=138-	=138-	=138-	=138-	=138-	=138-	=138-	=138-	=138-
00r	.	00r	.	00r	.	00r	.	2B-/	me	1ryy	2a\	me	2dd\	me
.	.	.	.	.	.	.	.	1B-/	et	.	1dd\	et	1ff\	et
=139-	=139-	=139-	=139-	=139-	=139-	=139-	=139-	=139-	=139-	=139-	=139-	=139-	=139-	=139-
.	.	.	.	.	.	.	.	.	.	1ryy	.	.	.	.
.	.	.	.	.	.	.	.	2e-X\	e-	.	2a\	e-	2gg\	e-
=140-	=140-	=140-	=140-	=140-	=140-	=140-	=140-	=140-	=140-	=140-	=140-	=140-	=140-	=140-
.	.	.	.	.	.	.	.	2.c/	-xau-	1ryy	2.cc\	-xau-	2.ee-X\	-xau-
.	.	.	.	.	.	.	.	4c/	-di-	.	4cc\	-di-	4ee-\	-di-
=141-	=141-	=141-	=141-	=141-	=141-	=141-	=141-	=141-	=141-	=141-	=141-	=141-	=141-	=141-
.	.	.	.	.	.	.	.	1d	-uit	1ryy	1a	-uit	1ff	-uit
=142-	=142-	=142-	=142-	=142-	=142-	=142-	=142-	=142-	=142-	=142-	=142-	=142-	=142-	=142-
2r	.	2r	.	2r	.	2r	.	1B-	me	1ryy	1b-	me	1dd	me
1B-/	et	2f\	et	2b-\	et	1dd\	et	.	.	.	.	.	.	.
=143-	=143-	=143-	=143-	=143-	=143-	=143-	=143-	=143-	=143-	=143-	=143-	=143-	=143-	=143-
.	.	1g	e-	1g	e-	.	.	00r	.	1ryy	00r	.	00r	.
2c/	e-	.	.	.	.	2ee-X\	e-	.	.	.	.	.	.	.
=144-	=144-	=144-	=144-	=144-	=144-	=144-	=144-	=144-	=144-	=144-	=144-	=144-	=144-	=144-
2.A/	-xau-	2f\	-xau-	2.a\	-xau-	2.cc\	-xau-	.	.	1ryy	.	.	.	.
.	.	2f\	-di-	.	.	.	.	.	.	.	.	.	.	.
4A/	-di-	.	.	4a\	-di-	4cc\	-di-	.	.	.	.	.	.	.
=145-	=145-	=145-	=145-	=145-	=145-	=145-	=145-	=145-	=145-	=145-	=145-	=145-	=145-	=145-
1B-	-uit	2d/	-uit	2f/	-uit	1dd	-uit	.	.	1ryy	.	.	.	.
.	.	1g\,	me	2b-\	me	.	.	.	.	.	.	.	.	.
=146-	=146-	=146-	=146-	=146-	=146-	=146-	=146-	=146-	=146-	=146-	=146-	=146-	=146-	=146-
2G/	me	.	.	2b-\	et	2ee-X\	me	.	.	1ryy	.	.	.	.
*	*	*	*	*	*	*	*ij	*	*	*	*	*	*	*
2.c/	et	2e/,	et	2g/	e-	1cc\	et	.	.	.	.	.	.	.
=147-	=147-	=147-	=147-	=147-	=147-	=147-	=147-	=147-	=147-	=147-	=147-	=147-	=147-	=147-
.	.	2e/	e-	2a\	-xau-	.	.	0r	.	1ryy	0r	.	0r	.
4c/	e-	.	.	.	.	.	.	.	.	.	.	.	.	.
*	*	*custos:f	*	*	*	*	*	*	*	*	*	*	*	*
2d\	-xau-	1f\	-xau-	2f/	-di-	2b-/	e-	.	.	.	.	.	.	.
=148-	=148-	=148-	=148-	=148-	=148-	=148-	=148-	=148-	=148-	=148-	=148-	=148-	=148-	=148-
*custos:c	*	*	*	*	*	*	*	*	*	*	*	*	*	*
1B-	-di-	.	.	2.b-\	.	2.dd\	-xau-	.	.	1ryy	.	.	.	.
!	!	!LO:LB:g=original	!	!	!	!	!	!	!	!	!	!	!	!
.	.	2f\	-di-	.	.	.	.	.	.	.	.	.	.	.
.	.	.	.	4a\	-uit	4dd\	-di-	.	.	.	.	.	.	.
!LO:LB:g=original	!	!	!	!	!	!	!	!	!	!	!	!	!	!
=149-	=149-	=149-	=149-	=149-	=149-	=149-	=149-	=149-	=149-	=149-	=149-	=149-	=149-	=149-
*	*	*	*	*custos:a	*	*	*	*	*	*	*	*	*custos:ff	*
!LO:TX:a:t= PAZUY	!	!	!	!	!	!	!	!	!	!	!	!	!	!
1c	-uit	(2f\	-uit	1g	.	1cc	-uit	1r	.	1ryy	1r	.	1r	.
.	.	2e\)	.	.	.	.	.	.	.	.	.	.	.	.
!	!	!	!	!LO:LB:g=original	!	!	!	!	!	!	!	!	!LO:LB:g=original	!
=150-	=150-	=150-	=150-	=150-	=150-	=150-	=150-	=150-	=150-	=150-	=150-	=150-	=150-	=150-
1A	me	1f	me	1a	me	1cc	me	1f	et	1ryy	1cc	et	1ff	et
*	*	*	*	*	*	*	*Xij	*	*	*	*	*	*	*
=151-	=151-	=151-	=151-	=151-	=151-	=151-	=151-	=151-	=151-	=151-	=151-	=151-	=151-	=151-
0r	.	0r	.	0r	.	0r	.	2B-/	e-	1ryy	2dd\	e-	2gg\	e-
.	.	.	.	.	.	.	.	2.c/	-xau-	.	2.cc\	-xau-	2.ee\	-xau-
=152-	=152-	=152-	=152-	=152-	=152-	=152-	=152-	=152-	=152-	=152-	=152-	=152-	=152-	=152-
.	.	.	.	.	.	.	.	.	.	1ryy	.	.	.	.
.	.	.	.	.	.	.	.	4c/	-di-	.	4cc\	-di-	4ee\	-di-
*	*	*	*	*	*	*	*	*custos:B-	*	*	*	*	*	*
.	.	.	.	.	.	.	.	2A/	-uit	.	2cc\	-uit	2ff\	-uit
!	!	!	!	!	!	!	!	!LO:LB:g=original	!	!	!	!	!	!
=153-	=153-	=153-	=153-	=153-	=153-	=153-	=153-	=153-	=153-	=153-	=153-	=153-	=153-	=153-
*	*	*	*	*	*	*	*	*	*	*	*custos:b-	*	*	*
2r	.	2r	.	2r	.	2r	.	2B-/	me	1ryy	1b-	me	2dd\,	me
1g\	et	1g\	et	1b-\	et	1dd\	et	1G/	et	.	.	.	1dd\	et
!	!	!	!	!	!	!	!	!	!	!	!LO:LB:g=original	!	!	!
=154-	=154-	=154-	=154-	=154-	=154-	=154-	=154-	=154-	=154-	=154-	=154-	=154-	=154-	=154-
*	*	*	*	*	*	*custos:cc	*	*	*	*	*	*	*	*
.	.	.	.	.	.	.	.	.	.	1ryy	2b-\	et	.	.
2c/	e-	2g\	e-	2g/	e-	2cc\	e-	2c/	e-	.	2cc\	e-	2ee-X\	e-
!	!	!	!	!	!	!LO:LB:g=original	!	!	!	!	!	!	!	!
=155-	=155-	=155-	=155-	=155-	=155-	=155-	=155-	=155-	=155-	=155-	=155-	=155-	=155-	=155-
1g	-xau-	2g\	-xau-	1b-	-xau-	1dd	-xau-	1G	-xau-	1ryy	2.b-\	-xau-	2dd\	-xau-
.	.	2d/	-di-	.	.	.	.	.	.	.	.	.	2gg\	-di-
.	.	.	.	.	.	.	.	.	.	.	4cc\	.	.	.
=156-	=156-	=156-	=156-	=156-	=156-	=156-	=156-	=156-	=156-	=156-	=156-	=156-	=156-	=156-
1.d	-di-	2d/	-uit	2a\	-di-	1.dd	-di-	1.d	-di-	1ryy	1.dd	.	2ff#X\	-uit
.	.	2g\	me	2b-\	-uit	.	.	.	.	.	.	.	1gg\	.
=157-	=157-	=157-	=157-	=157-	=157-	=157-	=157-	=157-	=157-	=157-	=157-	=157-	=157-	=157-
.	.	1r	.	1a	me	.	.	.	.	1ryy	.	.	.	.
2d\	-uit	.	.	.	.	2dd\	-uit	2d\	-uit	.	2dd\	-di-	2ff#X\	.
=158-	=158-	=158-	=158-	=158-	=158-	=158-	=158-	=158-	=158-	=158-	=158-	=158-	=158-	=158-
!	!	!	!	!	!	!	!	!	!	!	!LO:N:acc=#	!	!	!
2g\	me	2g\	et	2b-\	et	2dd\	me	2G/	me	1ryy	2bn\	-uit	2gg\	me
2c/	et	2g\	e-	1g\	e-	1cc\	et	2c/	et	.	1cc\	me	1ee-X\	e-
=159-	=159-	=159-	=159-	=159-	=159-	=159-	=159-	=159-	=159-	=159-	=159-	=159-	=159-	=159-
2c/	e-	1g	-xau-	.	.	.	.	2c/	e-	1ryy	.	.	.	.
!	!	!	!	!	!	!	!	!	!	!	!LO:N:acc=#	!	!	!
2g\	-xau-	.	.	2b-\	-xau-	2dd\	e-	2G/	-xau-	.	2bn\	et	4.dd\	-xau-
.	.	.	.	.	.	.	.	.	.	.	.	.	8een\	.
=160-	=160-	=160-	=160-	=160-	=160-	=160-	=160-	=160-	=160-	=160-	=160-	=160-	=160-	=160-
1.d	-di-	2f#X\	-di-	2a\	-di-	2dd\	-xau-	1.d	-di-	1ryy	2dd\	e-	4.ff#X\	.
.	.	.	.	.	.	.	.	.	.	.	.	.	8dd\	.
.	.	2d/	-uit	2b-\	.	1dd\	-di-	.	.	.	2b-\	-xau-	1gg\	-di-
=161-	=161-	=161-	=161-	=161-	=161-	=161-	=161-	=161-	=161-	=161-	=161-	=161-	=161-	=161-
.	.	1.d	me	1a	-uit	.	.	.	.	1ryy	2dd\	-di-	.	.
2d\	-uit	.	.	.	.	2dd\	-uit	2d\	-uit	.	2dd\	-bit	2ff#X\	-uit
=162-	=162-	=162-	=162-	=162-	=162-	=162-	=162-	=162-	=162-	=162-	=162-	=162-	=162-	=162-
!	!	!	!	!LO:N:acc=#	!	!	!	!	!	!	!LO:N:acc=#	!	!	!
!LO:N:vis=0	!	!	!	!LO:N:vis=0	!	!LO:N:vis=0	!	!LO:N:vis=0	!	!	!LO:N:vis=0	!	!LO:N:vis=0	!
0.g;;	me	.	.	0.bn;;	me.	0.dd;;	me.	0.G;;	me.	1ryy	0.bn;;	me.	0.gg;;	me
.	.	4e/	.	.	.	.	.	.	.	.	.	.	.	.
!	!	!LO:TX:t=P:problem=# below	!	!	!	!	!	!	!	!	!	!	!	!
.	.	4f#X/	.	.	.	.	.	.	.	.	.	.	.	.
=163-	=163-	=163-	=163-	=163-	=163-	=163-	=163-	=163-	=163-	=163-	=163-	=163-	=163-	=163-
.	.	0g;;	.	.	.	.	.	.	.	0ryy	.	.	.	.
==	==	==	==	==	==	==	==	==	==	==	==	==	==	==
*-	*-	*-	*-	*-	*-	*-	*-	*-	*-	*-	*-	*-	*-	*-
!!!system-decoration: [(s1,s2,s3,s4)][(s5,s6,s7,s8)]
!!!ENC: Anastazja Marusiak
!!!END: 2021-09-27
!!!ENC: Kamil Watkowski
!!!END: 2021-10-29
